64x64/apps/adventures-of-shuggy.svg

<svg height="64" width="64" xmlns="http://www.w3.org/2000/svg"><path d="m12 44-2-8-3 3-3-20s12 11 28 11 28-11 28-11l-3 20-3-3-2 8-6-8h-28z" opacity=".2"/><path d="m12 43-2-8-3 3-3-20s12 11 28 11 28-11 28-11l-3 20-3-3-2 8-6-8h-28z" fill="#f4f4f7"/><path d="m4 18 .162 1.14c.848.759 12.432 10.86 27.838 10.86s26.99-10.102 27.838-10.86l.162-1.14s-12 11-28 11-28-11-28-11z" fill="#f4f4f7" opacity=".1"/><path d="m18 50 6 11 8-9 8 9 6-11v-3h-28z" opacity=".2"/><path d="m18 49 6 11 8-9 8 9 6-11v-3h-28z" fill="#f4f4f7"/><path d="m15 5v45s6 3 17 3 17-3 17-3v-45l-11 14h-12z" opacity=".1"/><path d="m15 4v45s6 3 17 3 17-3 17-3v-45l-11 14h-12z" fill="#96f"/><circle cx="25" cy="40" opacity=".2" r="7"/><circle cx="25" cy="39" fill="#15b7ff" r="7"/><circle cx="39" cy="40" opacity=".2" r="7"/><circle cx="39" cy="39" fill="#15b7ff" r="7"/><path d="m15 4v1l11 14h12l11-14v-1l-11 14h-12zm10 28a7 7 0 0 0 -7 7 7 7 0 0 0 .023.541 7 7 0 0 1 6.977-6.541 7 7 0 0 1 6.977 6.459 7 7 0 0 0 .023-.459 7 7 0 0 0 -7-7zm14 0a7 7 0 0 0 -7 7 7 7 0 0 0 .023.541 7 7 0 0 1 6.977-6.541 7 7 0 0 1 6.977 6.459 7 7 0 0 0 .023-.459 7 7 0 0 0 -7-7z" fill="#f4f4f7" opacity=".2"/></svg>

<svg height="64" width="64" xmlns="http://www.w3.org/2000/svg">
    <path d="m12 44-2-8-3 3-3-20s12 11 28 11 28-11 28-11l-3 20-3-3-2 8-6-8H18z" opacity=".2"/>
    <path d="m12 43-2-8-3 3-3-20s12 11 28 11 28-11 28-11l-3 20-3-3-2 8-6-8H18z" fill="#f4f4f7"/>
    <path d="m4 18 .162 1.14C5.01 19.899 16.594 30 32 30s26.99-10.102 27.838-10.86L60 18S48 29 32 29 4 18 4 18z" fill="#f4f4f7" opacity=".1"/>
    <path d="m18 50 6 11 8-9 8 9 6-11v-3H18z" opacity=".2"/>
    <path d="m18 49 6 11 8-9 8 9 6-11v-3H18z" fill="#f4f4f7"/>
    <path d="M15 5v45s6 3 17 3 17-3 17-3V5L38 19H26z" opacity=".1"/>
    <path d="M15 4v45s6 3 17 3 17-3 17-3V4L38 18H26z" fill="#96f"/>
    <circle cx="25" cy="40" opacity=".2" r="7"/>
    <circle cx="25" cy="39" fill="#15b7ff" r="7"/>
    <circle cx="39" cy="40" opacity=".2" r="7"/>
    <circle cx="39" cy="39" fill="#15b7ff" r="7"/>
    <path d="M15 4v1l11 14h12L49 5V4L38 18H26zm10 28a7 7 0 0 0-7 7 7 7 0 0 0 .023.541A7 7 0 0 1 25 33a7 7 0 0 1 6.977 6.459A7 7 0 0 0 32 39a7 7 0 0 0-7-7zm14 0a7 7 0 0 0-7 7 7 7 0 0 0 .023.541A7 7 0 0 1 39 33a7 7 0 0 1 6.977 6.459A7 7 0 0 0 46 39a7 7 0 0 0-7-7z" fill="#f4f4f7" opacity=".2"/>
</svg>
